X: 3040
T: Bay Tree, The
R: waltz
M: 3/4
K: Gmajor
|:g>f|e2 ee de|g4 ed|c2 Bc dg|e2 d2 cd|
e2 ee de|g4 ed|c2 Bc de|G4:|
|:GG|e2 cG ce|f2 Ac fa|g2 Bd gc’|a2 g2 f2|
e2 cG ce|f2 Ac fa|g2 Bd gc’|a4 gf:|

